icons/acrobat-filled.svg

<svg width="256" height="256" viewBox="0 0 256 256" fill="none" xmlns="http://www.w3.org/2000/svg">
<path d="M196 0H60C26.8629 0 0 26.8629 0 60V196C0 229.137 26.8629 256 60 256H196C229.137 256 256 229.137 256 196V60C256 26.8629 229.137 0 196 0Z" fill="#000B1D"/>
<path d="M199.711 146.6C188.611 134.8 157.911 139.6 150.711 140.8C142.684 132.773 135.787 123.689 130.211 113.8C134.311 102.419 136.671 90.4848 137.211 78.4C137.211 67.6 132.911 56 120.911 56C118.868 56.0551 116.871 56.6246 115.105 57.6558C113.34 58.6871 111.863 60.1468 110.811 61.9C105.711 70.7 107.711 88.9 115.911 107.3C111.111 120.8 104.211 140.3 95.1115 156.1C82.8115 161 56.7115 173 54.2115 186.3C53.8321 188.227 53.9648 190.221 54.5965 192.081C55.2282 193.941 56.3368 195.602 57.8115 196.9C60.7291 199.475 64.5223 200.835 68.4115 200.7C84.1115 200.7 99.8115 178.9 110.411 160.2C122.625 156.033 135.124 152.758 147.812 150.4C164.411 164.9 179.211 167.1 186.711 167.1C196.911 167.1 200.711 162.7 202.111 159C202.85 156.906 203.016 154.654 202.594 152.474C202.173 150.295 201.177 148.267 199.711 146.6ZM188.911 154.2C188.411 157.1 184.712 160 177.812 158.5C169.819 156.496 162.372 152.738 156.011 147.5C161.411 146.6 174.011 145.4 182.911 147.1C186.111 147.7 189.811 149.5 188.911 154.2ZM117.311 65.7C117.639 65.0493 118.138 64.5005 118.755 64.1128C119.372 63.7251 120.083 63.5132 120.811 63.5C124.611 63.5 125.411 68.1 125.411 71.9C124.789 80.9642 123.111 89.9248 120.411 98.6C114.011 81.6 114.911 69.8 117.311 65.7ZM116.411 148.8C120.117 141.041 123.421 133.098 126.311 125C130.307 131.325 134.859 137.282 139.911 142.8C131.976 144.376 124.131 146.379 116.411 148.8ZM91.3115 166C81.2115 182.2 71.3115 192.4 65.5115 192.4C64.5672 192.408 63.649 192.09 62.9115 191.5C62.3726 191.065 61.9656 190.488 61.736 189.835C61.5064 189.181 61.4633 188.477 61.6115 187.8C62.7115 182 74.2115 173.6 91.3115 166Z" fill="white"/>
</svg>

<svg xmlns="http://www.w3.org/2000/svg" width="256" height="256" fill="none"><path fill="#000B1D" d="M196 0H60C26.863 0 0 26.863 0 60v136c0 33.137 26.863 60 60 60h136c33.137 0 60-26.863 60-60V60c0-33.137-26.863-60-60-60"/><path fill="#fff" d="M199.711 146.6c-11.1-11.8-41.8-7-49-5.8a125 125 0 0 1-20.5-27 120.3 120.3 0 0 0 7-35.4c0-10.8-4.3-22.4-16.3-22.4a12.17 12.17 0 0 0-10.1 5.9c-5.1 8.8-3.1 27 5.1 45.4-4.8 13.5-11.7 33-20.8 48.8-12.3 4.9-38.4 16.9-40.9 30.2a11.23 11.23 0 0 0 3.6 10.6 15.22 15.22 0 0 0 10.6 3.8c15.7 0 31.4-21.8 42-40.5a267 267 0 0 1 37.401-9.8c16.599 14.5 31.399 16.7 38.899 16.7 10.2 0 14-4.4 15.4-8.1a12.48 12.48 0 0 0-2.4-12.4m-10.8 7.6c-.5 2.9-4.199 5.8-11.099 4.3a55.55 55.55 0 0 1-21.801-11c5.4-.9 18-2.1 26.9-.4 3.2.6 6.9 2.4 6 7.1m-71.6-88.5a4 4 0 0 1 3.5-2.2c3.8 0 4.6 4.6 4.6 8.4a116.7 116.7 0 0 1-5 26.7c-6.4-17-5.5-28.8-3.1-32.9m-.9 83.1a251 251 0 0 0 9.9-23.8 126 126 0 0 0 13.6 17.8 225 225 0 0 0-23.5 6m-25.1 17.2c-10.1 16.2-20 26.4-25.8 26.4a4.1 4.1 0 0 1-2.6-.9 3.73 3.73 0 0 1-1.3-3.7c1.1-5.8 12.6-14.2 29.7-21.8"/></svg>
